epam-assets/icon-sources/18/internal-logo/bnb.svg

<svg width="18" height="18" viewBox="0 0 18 18" fill="none" xmlns="http://www.w3.org/2000/svg">
<g id="18/Internal-logo/bnb">
<path id="icon" d="M14.4478 12.375C14.8155 12.375 15.1256 12.51 15.3779 12.78C15.6301 13.05 15.7542 13.365 15.7499 13.725L10.5991 15.75L6.10892 14.4V8.325H7.35975L12.0231 10.1407C12.3567 10.2802 12.5234 10.5322 12.5234 10.8967C12.5234 11.1082 12.4507 11.2928 12.3053 11.4503C12.1599 11.6078 11.976 11.691 11.7537 11.7H9.9576L8.83508 11.2478L8.62341 11.8822L9.9576 12.375H14.4478ZM11.882 3.08025C12.3352 2.52675 12.9126 2.25 13.6139 2.25C14.1955 2.25 14.6872 2.475 15.0892 2.925C15.4912 3.375 15.705 3.8925 15.7307 4.4775C15.7307 4.941 15.5168 5.4945 15.0892 6.138C14.6616 6.7815 14.2404 7.31925 13.8256 7.75125C13.4107 8.18325 12.7629 8.8245 11.882 9.675C10.9925 8.8245 10.3382 8.18325 9.91913 7.75125C9.50007 7.31925 9.07887 6.7815 8.65547 6.138C8.23213 5.4945 8.02474 4.941 8.03329 4.4775C8.03329 3.8655 8.24068 3.348 8.65547 2.925C9.07032 2.502 9.5706 2.277 10.1565 2.25C10.8407 2.25 11.4158 2.52675 11.882 3.08025ZM2.25 8.325H4.82603V15.75H2.25V8.325Z" fill="#6C6F80"/>
</g>
</svg>

<svg xmlns="http://www.w3.org/2000/svg" width="18" height="18" fill="none" viewBox="0 0 18 18">
  <path fill="#6C6F80" d="M14.448 12.375c.367 0 .678.135.93.405s.376.585.372.945L10.6 15.75 6.108 14.4V8.325h1.25l4.664 1.816c.334.14.5.391.5.756a.79.79 0 0 1-.218.553.763.763 0 0 1-.551.25H9.958l-1.123-.452-.212.634 1.335.493h4.49ZM11.882 3.08c.453-.553 1.03-.83 1.732-.83.581 0 1.073.225 1.475.675.402.45.616.968.642 1.553 0 .463-.214 1.017-.642 1.66a11.607 11.607 0 0 1-1.263 1.613 79.652 79.652 0 0 1-1.944 1.924 80.414 80.414 0 0 1-1.963-1.924c-.419-.432-.84-.97-1.264-1.613-.423-.643-.63-1.197-.622-1.66 0-.612.208-1.13.622-1.553a2.174 2.174 0 0 1 1.502-.675c.684 0 1.259.277 1.725.83ZM2.25 8.325h2.576v7.425H2.25V8.325Z"/>
</svg>
